X: 1
T: Larry O'Gaff
R: jig
Z: 1997 by John Chambers <jc@trillian.mit.edu>
M: 6/8
L: 1/8
K: G
| "G"{def}g2G BAG | ded dBG | "C"cec "G"BdB | "Am"ABc "D7"def \
| "G"g2G BAG | ded dBG | "C"cec "G"BdB | "D7"AGA "G"G2 :|
|: d \
| "G"dgg gfg | gfg "D"afd | daa aga | aga "(G)"b2a \
| "G"gba "C"gfe | "G"dge dBG | "C"cec "G"BdB | "D7"AGA "G"G2 :|
